packages/merlin-www-assets/imports/brides/icons/cta-menu.svg

<svg xmlns="http://www.w3.org/2000/svg" viewBox="0 0 24 24"><title>menu</title>
  <path d="M0,19 L24,19 L24,20 L0,20 L0,19 Z M0,11.5 L24,11.5 L24,12.5 L0,12.5 L0,11.5 Z M0,4 L24,4 L24,5 L0,5 L0,4 Z"/>
</svg>

<svg viewBox="0 0 24 24" xmlns="http://www.w3.org/2000/svg"><path d="m0 19h24v1h-24zm0-7.5h24v1h-24zm0-7.5h24v1h-24z"/></svg>
